images/menu-social-yout.svg

<svg width="24" height="24" fill="none" xmlns="http://www.w3.org/2000/svg"><path d="M23.3 7.3c0-.2-.3-1.8-1-2.5-.9-1-1.9-1.1-2.4-1.1h-.1c-3.1-.2-7.7-.2-7.8-.2 0 0-4.7 0-7.8.2h-.1c-.5 0-1.5.1-2.4 1.1-.7.8-1 2.4-1 2.6 0 .1-.2 1.9-.2 3.8v1.7c0 1.9.2 3.7.2 3.8 0 .2.3 1.8 1 2.5.8.9 1.8 1 2.4 1.1h.3c1.8.2 7.3.2 7.5.2 0 0 4.7 0 7.8-.2h.1c.5-.1 1.5-.2 2.4-1.1.7-.8 1-2.4 1-2.6 0-.1.2-1.9.2-3.8v-1.7c.1-1.8-.1-3.7-.1-3.8Zm-7.4 4.9-6 3.2c-.1 0-.1.1-.2.1s-.2 0-.2-.1c-.1-.1-.2-.2-.2-.4V8.5c0-.2.1-.3.2-.4.1-.1.3-.1.5 0l6 3.2c.2.1.3.2.3.4s-.2.4-.4.5Z" fill="url(#a)"/><defs><linearGradient id="a" x1=".5" y1="3.5" x2="24.795" y2="18.248" gradientUnits="userSpaceOnUse"><stop stop-color="#A088FB"/><stop offset="1" stop-color="#B8A6FB"/></linearGradient></defs></svg>

<svg width="24" height="24" viewBox="0 0 24 24" fill="none" xmlns="http://www.w3.org/2000/svg">
<g id="Frame">
<path id="Vector" d="M23.3 7.3C23.3 7.1 23 5.5 22.3 4.8C21.4 3.8 20.4 3.7 19.9 3.7H19.8C16.7 3.5 12.1 3.5 12 3.5C12 3.5 7.3 3.5 4.2 3.7H4.1C3.6 3.7 2.6 3.8 1.7 4.8C1 5.6 0.7 7.2 0.7 7.4C0.7 7.5 0.5 9.3 0.5 11.2V12.9C0.5 14.8 0.7 16.6 0.7 16.7C0.7 16.9 1 18.5 1.7 19.2C2.5 20.1 3.5 20.2 4.1 20.3H4.4C6.2 20.5 11.7 20.5 11.9 20.5C11.9 20.5 16.6 20.5 19.7 20.3H19.8C20.3 20.2 21.3 20.1 22.2 19.2C22.9 18.4 23.2 16.8 23.2 16.6C23.2 16.5 23.4 14.7 23.4 12.8V11.1C23.5 9.3 23.3 7.4 23.3 7.3ZM15.9 12.2L9.9 15.4C9.8 15.4 9.8 15.5 9.7 15.5C9.6 15.5 9.5 15.5 9.5 15.4C9.4 15.3 9.3 15.2 9.3 15V8.5C9.3 8.3 9.4 8.2 9.5 8.1C9.6 8 9.8 8 10 8.1L16 11.3C16.2 11.4 16.3 11.5 16.3 11.7C16.3 11.9 16.1 12.1 15.9 12.2Z" fill="url(#paint0_linear_814_2082)"/>
</g>
<defs>
<linearGradient id="paint0_linear_814_2082" x1="0.5" y1="3.5" x2="24.7951" y2="18.248" gradientUnits="userSpaceOnUse">
<stop stop-color="#A088FB"/>
<stop offset="1" stop-color="#B8A6FB"/>
</linearGradient>
</defs>
</svg>
